X:1
T:Marcha nupcial
T:Marcha Nupcial para casamiento 
T:Compositor: F. Mendelssohn Arreglo: Dereck José 
Z:Arreglo: Dereck José
%%score [ 1 2 3 4 ]
L:1/8
Q:1/4=140
M:4/4
K:C
V:1 treble nm="Violin I"
V:2 treble nm="Violin II"
V:3 alto nm="Viola"
V:4 bass nm="Violoncello"
V:1
 z8 | z8 | z8 | z8 |!f! G2 (3GGG G2 (3GGG |:S!ff! c'4 b3 ^f | (a2 g2) !tenuto!.f2 !tenuto!.d2 | %7
 Tc3 B/c/ d2 G>d | e2 CE Gceg | c4 B3 ^F | (A2 G2) !tenuto!.F2 !tenuto!.D2 | TC3 B,/C/ E2 D>E | %12
 (D4 C2)!f! (3CCC!fine! |1[K:treble+8] z2!f! (3CEG c2 z2 || z2 (3EGc e2 z2 | z2 (3EGc e2 (3Gce | %16
 g2 (3Gce g2 (3ceg :|2[K:treble]!ff! c'4 c'3 c' || (e'2 d'2) !tenuto!.b2 !tenuto!.g2 | %19
 g7/2 c'/ c'7/2 e'/ | (e'2 d'2) b2 g2 | g7/2 e'/ e'7/2 g'/ | (g'4 f'2) e'2 | d'2 ^c'>e' d'2 a>=c' | %24
 b2!ff! g2 a2 b2!D.S.! |] %25
V:2
 z8 | z8 | z8 |!f! E2 (3EEE E2 (3EEE | E2 (3EEE E2 (3EEE |:!ff! c4 B3 ^F | %6
 (A2 G2) !tenuto!.F2 !tenuto!.D2 | TC3 B,/C/ D2 G,>D | e2 CE Gceg | c'4 b3 ^f | %10
 (a2 g2) !tenuto!.f2 !tenuto!.d2 | Tc3 B/c/ e2 d>e | (d4 c2)!f! (3CCC |1 %13
[K:treble+8] z2!f! (3CEG c2 z2 || z2 (3CEG c2 z2 | z2 (3CEG c2 (3EGc | e2 (3EGc e2 (3Gce :|2 %17
[K:treble]!ff! c4 c3 c || (e2 d2) !tenuto!.B2 !tenuto!.G2 | G7/2 c/ c7/2 e/ | (e2 d2) B2 G2 | %21
 G7/2 e/ e7/2 g/ | (g4 f2) e2 | d2 ^c>e d2 A>=c | b2!ff! g2 a2 b2 |] %25
V:3
 z6!f! (3CCC | C4 z2 (3CCC | C4 z2 (3CCC | C2 (3CCC C2 (3CCC | C2 (3CCC C2 (3CCC |: %5
!ff! A,4 B,3 B, | E4 !tenuto!.F2 !tenuto!.F2 | G3 G/G/ G2 G2 | E2 C,E, G,CEG | A,4 B,3 B, | %10
 E4 !tenuto!.F2 !tenuto!.F2 | G,3 G,/G,/ G,2 G,2 | (G,4 C2) z2 |1[K:alto]!f! C4 z2 (3CCC || %14
 C4 z2 (3CCC | E2 (3EEE E2 (3EEE | E2 (3EEE E2 (3EEE :|2[K:alto]!ff! C4 C3 C || G,6 G,2 | %19
 C2 C2 E2 C2 | G,6 G2 | c2 G2 E2 C2 | F,6 F,2 | F,2 F2 ^F2 ^F,2 | G,4 z4 |] %25
V:4
 z6!f! (3C,C,C, | C,4 z2 (3C,C,C, | C,4 z2 (3C,C,C, | C,2 (3C,C,C, C,2 (3C,C,C, | %4
 C,2 (3C,C,C, C,2 (3C,C,C, |:!ff! A,,4 B,,3 B,, | E,4 !tenuto!.F,2 !tenuto!.F,2 | %7
 G,3 G,/G,/ G,2 G,2 | E,2 C,,E,, G,,C,E,G, | A,,4 B,,3 B,, | E,4 !tenuto!.F,2 !tenuto!.F,2 | %11
 G,3 G,/G,/ G,2 G,2 | (G,,4 C,2) z2 |1[K:bass]!f! C,4 z2 (3C,C,C, || C,4 z2 (3C,C,C, | %15
 C,2 (3C,C,C, C,2 (3C,C,C, | [C,G,]2 (3[C,G,][C,G,][C,G,] [C,G,]2 (3[C,G,][C,G,][C,G,] :|2 %17
[K:bass]!ff! C,4 C,3 C, || G,,6 G,,2 | C,2 C,2 E,2 C,2 | G,,6 G,2 | C2 G,2 E,2 C,2 | F,,6 F,,2 | %23
 F,,2 F,2 ^F,2 ^F,,2 | G,,4 z4 |] %25

